X: 1
T: Crazy Creek
C: Tommy Jackson
N: From the playing of Byron Berline
S: https://tunearch.org/wiki/Crazy_Creek 2020-10-13
Z: V.T. Williams
M: C|
K: A
|:\
A,2A,C EGFG | AcBA FAEF | ABAB cBA2 | e4e3e- | e=ged =cdcA |
=G=cAG ED=CD | E=GED =CA,=G,D | E6GF | EFGB dcB-A | A3-cA4!fine! :|
[FA]4AcAG | FEFG AcAG | CB,CD EGE2 |[ EC]4[EC]4 |
AcAG FEFG | AcAG FEF2 | GAGF EDCD | E8!D.C.! |]
